X:447
T: In was, mein Volk (5-43), S. 71f
N: P0717
O: Lothringen
S: MERKELBACH-PINCK, Angelika: Verklingende Weisen, Bd 5, Kassel 1962]
R: geistliches, religiöses Lied]
M: 4/4
L: 1/8
K: G
 | G4D2G2 | B6A2 | G2F2E2F2 | G4D4
G4GAB2 | A4ABc2 | B4AGA2 | G6z2
A4DEF2 | G4G2B2 | A4F2G2 | A4G4
c4ABc2 | B4G2B2 | A2d2B2A2 | G6z2
c4ABc2 | B4G2B2 | A4G2F2 | G6z2

